X:1
T:Title
%%score { ( 1 4 ) | ( 2 3 ) }
L:1/8
Q:1/4=106
M:4/4
K:F
V:1 treble nm="Grand Piano"
V:4 treble 
V:2 bass 
V:3 bass 
V:1
 [Ac]2 A2 G F3 | [EG]2 [EG]2 [FA] [Ac]3 | [Bd]2 [Bd]2 [Ac]2 .[A,FA]2 | [FA]3 [EG] [EG]4 | %4
w: J.~H.~Fillmore * * *||||
 c2 A2 G F3 | [EG]2 [EG]2 [FA] [Ac]3 | [Bd]2 [Bd]2 [Ac]2 [CFA]2 | [B,EG]3 [A,CF] [A,CF]4 | %8
w: ||||
 [Bd]2 [df]2 [ce] [Bd]3 | [Ac]2 [Bd]2 [Ac] A3 | G2 e2 d>c =B>d | [Ec-]4 [Fc-]2 [Gc]2 | c2 A2 G F3 | %13
w: |||||
 [EG]2 [EG]2 [FA] [Ac]3 | [Bd]2 [Bd]2 [Ac]2 [CFA]2 |[M:8/4] [B,EG]3 [A,CF] [A,CF]4 z8 |] %16
w: |||
V:2
 [F,C]2 [F,CF]2 [F,B,E] [F,A,]3 | [C,C]2 [C,C]2 [F,C] [F,C]3 | [B,,B,]2 [D,B,]2 z G, z B, | %3
 [C,C]3 [C,C] [C,C]4 | [F,A,F]2 [F,CF]2 [F,B,E] [F,A,]3 | [C,C]2 [C,C]2 [F,C] [F,C]3 | %6
 [B,,B,]2 [D,B,]2 z A, F,2 | C,3 F, F,4 | [B,,B,]2 [B,,B,]2 [B,,B,] [D,B,]3 | %9
 F,2 F,2 F,[K:treble] [F,F]3 | [G,CE]2 [G,CG]2 [G,=B,F]>[G,CE] [G,D]>[G,B,F] | z2 G,2 A,2 B,2 | %12
 [F,A,F]2 [F,CF]2 [F,B,E] [F,A,]3 | [C,C]2 [C,C]2 [F,C] [F,C]3 | [B,,B,]2 [D,B,]2 z A, F,2 | %15
[M:8/4] C,3 F, F,4 z8 |] %16
V:3
 x8 | x8 | z4 F,2 F,2 | x8 | x8 | x8 | z4 F,2 z2 | x8 | x8 | x5[K:treble] x3 | x8 | C,8 | x8 | x8 | %14
 z4 F,2 z2 |[M:8/4] x16 |] %16
V:4
 x8 | x8 | x8 | x8 | x8 | x8 | x8 | x8 | x8 | x8 | x8 | C2 z2 z4 | x8 | x8 | x8 |[M:8/4] x16 |] %16

